Origami/64x64/apps/libreoffice-draw.svg

<svg width="64" height="64" version="1" xmlns="http://www.w3.org/2000/svg">
 <path d="m10 56v2c0 1.662 1.338 3 3 3h38c1.662 0 3-1.338 3-3v-2c0 1.662-1.338 3-3 3h-38c-1.662 0-3-1.338-3-3z" style="opacity:.2"/>
 <path d="m54 57v-50c0-1.662-1.338-3-3-3h-38c-1.662 0-3 1.338-3 3v50c0 1.662 1.338 3 3 3h38c1.662 0 3-1.338 3-3z" style="fill:#fec006"/>
 <path d="M 14,9 14,57 50,57 50,25.828 33.172,9 14,9 Z M 38.828,9 50,20.172 50,9 38.828,9 Z" style="opacity:.1"/>
 <path d="M 14,8 14,56 50,56 50,24.828 33.172,8 14,8 Z M 38.828,8 50,19.1718 50,8 38.828,8 Z" style="fill:#f5f5f5"/>
 <path d="m13 4c-1.662 0-3 1.338-3 3v1c0-1.662 1.338-3 3-3h38c1.662 0 3 1.338 3 3v-1c0-1.662-1.338-3-3-3h-38z" style="fill:#ffffff;opacity:.1"/>
 <path d="m19.0212 37.044 2.3226 0.05c4.5714 0.098 9.0132 1.233 10.6332 3.7356 3.7796 5.8388-3.8062 8.2318-6.8142 4.1084-2.8108-4.526-1.83946-14.6462 2.2104-15.738 7.328-1.6622 8.5466 9.8376 13.0528 7.57 3.4724-1.7474-2.1848-9.6764 1.2059-11.566 1.45914-0.8134 4.5176 2.4706 4.5176 2.4706" style="fill:none;opacity:.5;stroke-linecap:square;stroke-width:2;stroke:#000000"/>
</svg>

<svg xmlns="http://www.w3.org/2000/svg" width="64" height="64" version="1">
 <path style="opacity:0.2" d="m 10,56 0,2 c 0,1.662 1.338,3 3,3 l 38,0 c 1.662,0 3,-1.338 3,-3 l 0,-2 c 0,1.662 -1.338,3 -3,3 l -38,0 c -1.662,0 -3,-1.338 -3,-3 z"/>
 <path style="fill:#fec006" d="M 54,57 54,7 C 54,5.338 52.662,4 51,4 L 13,4 c -1.662,0 -3,1.338 -3,3 l 0,50 c 0,1.662 1.338,3 3,3 l 38,0 c 1.662,0 3,-1.338 3,-3 z"/>
 <path style="opacity:0.1" d="M 14,9 14,57 50,57 50,25.828 33.172,9 14,9 Z M 38.828,9 50,20.172 50,9 38.828,9 Z"/>
 <path style="fill:#f5f5f5" d="M 14,8 14,56 50,56 50,24.828 33.172,8 14,8 Z M 38.828,8 50,19.1718 50,8 38.828,8 Z"/>
 <path style="opacity:0.1;fill:#ffffff" d="M 13 4 C 11.338 4 10 5.338 10 7 L 10 8 C 10 6.338 11.338 5 13 5 L 51 5 C 52.662 5 54 6.338 54 8 L 54 7 C 54 5.338 52.662 4 51 4 L 13 4 z"/>
 <path style="opacity:0.5;fill:none;stroke:#000000;stroke-width:2;stroke-linecap:square" d="m 19.0212,37.044 2.3226,0.05 c 4.5714,0.098 9.0132,1.233 10.6332,3.7356 3.7796,5.8388 -3.8062,8.2318 -6.8142,4.1084 -2.8108,-4.526 -1.83946,-14.6462 2.2104,-15.738 7.328,-1.6622 8.5466,9.8376 13.0528,7.57 3.4724,-1.7474 -2.1848,-9.6764 1.2059,-11.566 1.45914,-0.8134 4.5176,2.4706 4.5176,2.4706"/>
</svg>
